X: 4
T: Emma's
R: waltz
M: 3/4
L: 1/8
K: Amin
Ac|: "Am"e4 e2 |c2 A2 Ac | e4 e2 |c2 A2 Ac |
"E7"B4 Bc | d2 c2 B2|1 "Am"A3 Bcd | e4 Ac:|2 "Am"A3 BcB | A2 c2 e2||
|: "F"a4 a2 | a2 g2 f2 | "C"e4 e2 | e2 d2 c2 |
"G"B4 Bc | d2 c2 B2 |1 "Am"A3 Bcd |e2 c2 e2 :|2 "Am"A2 ABcB| A4 ||

